X: 37282
T: Skipper And Company
R: reel
M: 4/4
K: Gmajor
|:A|{c}BAGE DEGA|BAGA Bdef|gedB gedB|cABG AGEB|
BAGE DEGA|BAGA Bdef|gage dBge|dBAB G3:|
|:e|gabg agea|gedB d2d2|gabg agea|gedB {c}BAA2|
gabg agea|gedB dega|bagb aged|{Bc}B2AB G3:|

